X:1
T:St. Anne's Reel
C:DAD Tablature
L:1/8
Q:240
M:4/4
K:D
z6de|:f2fgfedB|A2F2F2dA|B2G2G2Bd|B2A2A2de|f2fgfedB|A2F2F2dA|BGBdcAce|1d2f2d2de:|2d2f2d2ag|:fdfafdfa|ag3g2ef|gfedcdeg|bagaf2ag|fdfafdfa|ag2fg2gf|edcBAceg| \
|1fdecd2ag:|2fdecd4| \
Z:Created with TablEdit http://www.tabledit.com/
